X:164
%%topmargin 3cm
T:The Chorus Jig
C:Arranged by K.N. Macdonald
O:Scotland
B:Keith Norman MacDonald : "The Skye collection of the best reels & strathspeys extant" : 1887
Z:Ralph Palmer
R:Reel
M:C
L:1/8
K:E dorian
A | (GF)ut.Dt.D FADD | (GF)ut.Dt.D FABA | (GF)ut.Dt.D FADD | FE=cc EG E :| uF(Dd)d BAGF |
E(Dd)d BA A2 | (Dd)dB AGFD | E=cc[EB] G2 E2 | (Dd)dB AGFE | DddB A2 A2 |
.B.c.d.B .c.A.B.G | AFE=c cEGE || g | (fd)df af d2 | (gf)dd faba | (gf)dd fafd |
fede fg e :: g |.f.d.e.c .d.B.A.F | DddB A2 A2 | .g.f.d.e .c.d.B.G | FE=cc [EB]GE :|
